public/media/curves/dial_rim.svg

<?xml version="1.0" encoding="UTF-8" standalone="no"?><!DOCTYPE svg PUBLIC "-//W3C//DTD SVG 1.1//EN" "http://www.w3.org/Graphics/SVG/1.1/DTD/svg11.dtd"><svg width="100%" height="100%" viewBox="0 0 219 219" version="1.1" xmlns="http://www.w3.org/2000/svg" xmlns:xlink="http://www.w3.org/1999/xlink" xml:space="preserve" xmlns:serif="http://www.serif.com/" style="fill-rule:evenodd;clip-rule:evenodd;stroke-linejoin:round;stroke-miterlimit:2;"><path d="M74.666,2.997c3.4,-1.963 7.256,-2.996 11.181,-2.996l46.475,-0.001c3.925,0 7.78,1.034 11.18,2.997l40.248,23.236c3.399,1.963 6.222,4.786 8.184,8.185l23.238,40.248c1.962,3.4 2.996,7.256 2.996,11.181l-0.001,46.475c0,3.925 -1.033,7.781 -2.995,11.18l-23.238,40.248c-1.962,3.399 -4.785,6.222 -8.184,8.184l-40.248,23.238c-3.4,1.962 -7.256,2.996 -11.181,2.996l-46.474,-0.001c-3.925,0 -7.782,-1.032 -11.181,-2.995l-40.248,-23.238c-3.399,-1.962 -6.222,-4.785 -8.184,-8.184l-23.238,-40.248c-1.962,-3.4 -2.995,-7.256 -2.995,-11.181l-0.001,-46.474c0,-3.925 1.034,-7.781 2.996,-11.181l23.237,-40.248c1.963,-3.399 4.786,-6.222 8.185,-8.184l40.248,-23.237Zm11.181,1.476c-3.14,0 -6.225,0.826 -8.944,2.396l-40.249,23.238c-2.719,1.57 -4.978,3.828 -6.548,6.547l-23.237,40.249c-1.57,2.719 -2.397,5.804 -2.397,8.944l0.001,46.475l0.002,0.294c0.05,3.038 0.873,6.015 2.394,8.65l23.237,40.248c1.57,2.719 3.829,4.978 6.548,6.548l40.248,23.237c2.72,1.57 5.805,2.396 8.945,2.396l46.475,0.001c3.14,0 6.224,-0.827 8.944,-2.397l40.248,-23.237c2.719,-1.57 4.977,-3.829 6.547,-6.548l23.238,-40.248c1.57,-2.72 2.396,-5.805 2.396,-8.945l0.001,-46.474c0,-3.042 -0.776,-6.032 -2.252,-8.688l-0.145,-0.256l-23.238,-40.249c-1.57,-2.719 -3.828,-4.977 -6.547,-6.548l-40.249,-23.237c-2.719,-1.57 -5.804,-2.396 -8.944,-2.396l-46.474,0Z" style="fill:#054;fill-opacity:0.76;fill-rule:nonzero;"/></svg>

<?xml version="1.0" encoding="UTF-8" standalone="no"?>
<!DOCTYPE svg PUBLIC "-//W3C//DTD SVG 1.1//EN" "http://www.w3.org/Graphics/SVG/1.1/DTD/svg11.dtd">
<svg width="100%" height="100%" viewBox="0 0 910 910" version="1.1" xmlns="http://www.w3.org/2000/svg" xmlns:xlink="http://www.w3.org/1999/xlink" xml:space="preserve" xmlns:serif="http://www.serif.com/" style="fill-rule:evenodd;clip-rule:evenodd;stroke-linejoin:round;stroke-miterlimit:2;">
    <g transform="matrix(4.166667,0,0,4.166667,0,0)">
        <path d="M74.666,2.997C78.066,1.034 81.922,0.001 85.847,0.001L132.322,-0C136.247,-0 140.102,1.034 143.502,2.997L183.75,26.233C187.149,28.196 189.972,31.019 191.934,34.418L215.172,74.666C217.134,78.066 218.168,81.922 218.168,85.847L218.167,132.322C218.167,136.247 217.134,140.103 215.172,143.502L191.934,183.75C189.972,187.149 187.149,189.972 183.75,191.934L143.502,215.172C140.102,217.134 136.246,218.168 132.321,218.168L85.847,218.167C81.922,218.167 78.065,217.135 74.666,215.172L34.418,191.934C31.019,189.972 28.196,187.149 26.234,183.75L2.996,143.502C1.034,140.102 0.001,136.246 0.001,132.321L0,85.847C0,81.922 1.034,78.066 2.996,74.666L26.233,34.418C28.196,31.019 31.019,28.196 34.418,26.234L74.666,2.997ZM85.847,4.473C82.707,4.473 79.622,5.299 76.903,6.869L36.654,30.107C33.935,31.677 31.676,33.935 30.106,36.654L6.869,76.903C5.299,79.622 4.472,82.707 4.472,85.847L4.473,132.322L4.475,132.616C4.525,135.654 5.348,138.631 6.869,141.266L30.106,181.514C31.676,184.233 33.935,186.492 36.654,188.062L76.902,211.299C79.622,212.869 82.707,213.695 85.847,213.695L132.322,213.696C135.462,213.696 138.546,212.869 141.266,211.299L181.514,188.062C184.233,186.492 186.491,184.233 188.061,181.514L211.299,141.266C212.869,138.546 213.695,135.461 213.695,132.321L213.696,85.847C213.696,82.805 212.92,79.815 211.444,77.159L211.299,76.903L188.061,36.654C186.491,33.935 184.233,31.677 181.514,30.106L141.265,6.869C138.546,5.299 135.461,4.473 132.321,4.473L85.847,4.473Z" style="fill:rgb(0,85,68);fill-opacity:0.76;fill-rule:nonzero;"/>
    </g>
</svg>
